app/assets/images/heroicon/mini/document-check.svg

<svg width="20" height="20" viewBox="0 0 20 20" fill="none" xmlns="http://www.w3.org/2000/svg">
<path fill-rule="evenodd" clip-rule="evenodd" d="M4.5 2C3.67157 2 3 2.67157 3 3.5V16.5C3 17.3284 3.67157 18 4.5 18H15.5C16.3284 18 17 17.3284 17 16.5V7.62132C17 7.2235 16.842 6.84197 16.5607 6.56066L12.4393 2.43934C12.158 2.15804 11.7765 2 11.3787 2H4.5ZM13.0565 9.25245C13.3342 8.94508 13.3101 8.47082 13.0028 8.19316C12.6954 7.91549 12.2211 7.93957 11.9435 8.24694C10.9653 9.32976 10.0805 10.4987 9.30179 11.7411L8.28033 10.7197C7.98743 10.4268 7.51256 10.4268 7.21967 10.7197C6.92678 11.0126 6.92678 11.4874 7.21967 11.7803L8.92031 13.481C9.08545 13.6461 9.31808 13.7249 9.54957 13.6941C9.78106 13.6633 9.98499 13.5264 10.1012 13.3238C10.9406 11.8607 11.9329 10.4963 13.0565 9.25245Z" fill="#0F172A"/>
</svg>

<svg xmlns="http://www.w3.org/2000/svg" viewBox="0 0 20 20" fill="currentColor" aria-hidden="true">
  <path fill-rule="evenodd" d="M4.5 2A1.5 1.5 0 003 3.5v13A1.5 1.5 0 004.5 18h11a1.5 1.5 0 001.5-1.5V7.621a1.5 1.5 0 00-.44-1.06l-4.12-4.122A1.5 1.5 0 0011.378 2H4.5zm8.556 7.252a.75.75 0 10-1.112-1.005 25.094 25.094 0 00-2.642 3.494L8.28 10.72a.75.75 0 00-1.06 1.06l1.7 1.701a.75.75 0 001.181-.157 23.581 23.581 0 012.955-4.072z" clip-rule="evenodd"/>
</svg>
